shader_type spatial;
render_mode unshaded;

uniform sampler2D SCREEN_TEXTURE : hint_screen_texture;
uniform vec4 outline_color : source_color;
uniform float outline_width = 2.0;

void fragment() {
	// Called for every pixel the material is visible on.
}

//void light() {
//	// Called for every pixel for every light affecting the material.
//	// Uncomment to replace the default light processing function with this one.
//}
